X: 16
T:Over The Ocean
M:6/8
L:1/8
R:Jig
K:G
"G"D2B BAG|BdB A2B|"Em"GED G2A|B2B AGE|
"G"D2B BAG|BdB A2B|"Em"GED G2A|
1 "G"BGF G2E:|2 "G"BGF GBd|:
"Em"e3 edB|e2e edB|"D"d2d def|gfe dBA|
"G"G2A B2d|"C"ege "G"dBA|"Em"GED G2A|
1 "G"BGF GBd:|2 "G"BGF G3|
